X:0884
T:Tom Jones,
C:Irish.
M:6/8
L:1/8
Q:3/8=120
I: :: :|
Z:Jack Campin * www.campin.me.uk * 2009
K:D
a3  g3 |fdf ecA|d2f ecA|d2f ecA|dcd ede|fef gfg|a2d c2B|A3 A3:|
D2F E2G|F2A G2F|GAB ABc|B3  A3 |GFG AGA|BAB cBc|d2G F2E|D3 D3:|

